X:6728
T:the Dumb Glutton.
O:england
M:2/4
L:1/8
K:G
B2 GB|cecA|B2 AG|FA c2|B2 GB|c2 Ac|BGAF |G2 [G2G,2]::
B2 GB|dgdB|c2 Ac|fafd |Bd g2|dBAG |c2 ec|B2  A2     |
B2 GB|cecA|B2 AG|FA c2|B2 GB|c2 Ac|BGFA |G2 [G2G,2]:|


